v/0.4.11/design-resources/icons/wf_doctype-icons/file-book-sm.svg

<?xml version="1.0" encoding="utf-8"?>
<!-- Generated by IcoMoon.io -->
<!DOCTYPE svg PUBLIC "-//W3C//DTD SVG 1.1//EN" "http://www.w3.org/Graphics/SVG/1.1/DTD/svg11.dtd">
<svg version="1.1" xmlns="http://www.w3.org/2000/svg" xmlns:xlink="http://www.w3.org/1999/xlink" width="512" height="512" viewBox="0 0 512 512">
<g>
</g>
	<path d="M416.004 0h-352.004v64.012l-32 31.988v32l32 32v32.012l-32 31.988v32l32 32v32.012l-32 31.988v32l32 32v64l31.996 16h319.988l32.016-16v-447.99l-31.996-32.010zM416 448h-320v-96h32v-32h-32v-96h32v-32h-32v-96h32v-32h-32v-32h320v416z" fill="#595959"></path>
</svg>

<svg xmlns="http://www.w3.org/2000/svg" width="512" height="512" viewBox="0 0 512 512"><path stroke="#449FDB" d="M0 0"/><path d="M416.004 0H64v64.012L32 96v32l32 32v32.012L32 224v32l32 32v32.012L32 352v32l32 32v64l31.996 16h319.988L448 480V32.01L416.004 0zM416 448H96v-96h32v-32H96v-96h32v-32H96V96h32V64H96V32h320v416z" fill="#595959"/></svg>
